!!!OTL: Frau von Weissenburg.
!!!OTL-incipit: Wer mir es zu essen und trinken gibt,
!!!ODT: 1935
!!!ARE: Europa, Mitteleuropa, Deutschland / France, Lothringen, Hottweiler
!!!YOR: 1, S. 313
!!    1935 aufgezeichnet
!!!SCT: Q0030D
!!!YEM: Copyright 1995, estate of Helmut Schaffrath.
**kern	**text
*ICvox	*
*M3/4	*
*k[b-]	*
*F:	*
!LO:TX:a:t=Hottweiler (Lothringen) 1935.	!
{4c	1._Wer
=1	=1
4f	mir
4a	es
4f	ʒu
=2	=2
4g	eſ-
4a	-ſen
4f	und
=3	=3
(4.g	trin-
8a)	.
4b-	-ken
=4	=4
2cc}	gibt,
{4cc	dem
=5	=5
4dd	ſing'
4dd	ich
4cc	ein
=6	=6
4b-	neu-
4g	-es
4cc	friſch
=7	=7
2.g}	Lied
=8	=8
{2.cc	wohl
=9	=9
4b-	von
4a	es
4f	der
=10	=10
4b-	fal-
4cc	-ſchen
4a	Grä-
=11	=11
(4.f	-fi-
8g	.
4a)	.
=12	=12
2.g}	-na,
=13	=13
{2.g	die
=14	=14
4f	ih-
4d	-ri-
4c	-gen
=15	=15
4g	Her-
4b-	-ren
8aL	ver-
8gJ	.
=16	=16
2.f}	-ließ.
=17	=17
{2.cc	wohl
=18	=18
4b-	von
4a	es
4f	der
=19	=19
4b-	fal-
4cc	-ſchen
4a	Grä-
=20	=20
(4.f	-fi-
8g	.
4a)	.
=21	=21
2.g}	-na,
=22	=22
{2.g	die
=23	=23
4f	ih-
4d	-ri-
4c	-gen
=24	=24
4g	Her-
4b-	-ren
8aL	ver-
8gJ	.
=25	=25
2f}	-ließ.
==	==
!!!AGN: Ballade, Ehebruch, Mord, Moral
!! Entfernte Variante zu Q0030A.
!!!ONB: ESAC (Essen Associative Code) Database: BALLADE
!!!AMT: simple triple
!!!AIN: vox
!!!EED: Helmut Schaffrath
!!!EEV: 1.0
!!!source: Deutsche Volkslieder mit ihren Melodien. Balladen. Herausgegeben vom Deutschen Volksliedarchiv. Erster Band Balladen. Berlin und Leipzig 1935.
!!!page: 313
!!!ENC: Anna Maria Matuszewska
!!!EEV: 2025/02/14
*-	*-
